Apricity Icons/16/panel/si-syncthing-5.svg

<svg xmlns="http://www.w3.org/2000/svg" width="16" height="16" version="1.1">
 <defs>
  <style id="current-color-scheme" type="text/css">
   .ColorScheme-Text { color:#dfdfdf; } .ColorScheme-Highlight { color:#4285f4; }
  </style>
 </defs>
 <path style="fill:currentColor" class="ColorScheme-Text" d="M 14.062178,11.5 A 7,7 0 0 0 11.5,1.9378222 7,7 0 0 0 1.9378223,4.5 7,7 0 0 0 4.5,14.062178 7,7 0 0 0 14.062178,11.5 Z m -1.732051,-1 A 5,5 0 0 1 6.3628719,12.722308 1.5,1.5 0 0 1 4.5669878,12.946152 1.5,1.5 0 0 1 3.9822702,10.966726 5,5 0 0 1 3.0337984,7.4376523 1.5,1.5 0 0 1 2.5538484,5.4330126 1.5,1.5 0 0 1 4.2227431,4.7299017 5,5 0 0 1 10.5,3.669873 a 5,5 0 0 1 0.07345,0.04466 1.5,1.5 0 0 1 1.72559,-0.1606856 1.5,1.5 0 0 1 0.549038,2.0490381 A 1.5,1.5 0 0 1 12.557954,5.9608624 5,5 0 0 1 12.330127,10.5 Z M 11.464102,10 a 4,4 0 0 0 0.174446,-3.6498052 1.5,1.5 0 0 1 -0.83951,-0.198271 1.5,1.5 0 0 1 -0.05048,-0.033656 L 8.7363406,7.7011833 A 1.5,1.5 0 0 1 8.6160255,8.9330127 1.5,1.5 0 0 1 7.0439454,9.6559353 L 6.4560546,10.674192 a 1.5,1.5 0 0 1 0.3491163,1.1375 A 4,4 0 0 0 11.464102,10 Z M 10.130662,5.3330237 A 1.5,1.5 0 0 1 10.075854,4.5842032 4,4 0 0 0 10,4.5358984 4,4 0 0 0 5.0586861,5.2937237 1.5,1.5 0 0 1 5.325808,6.4560545 l 1.0182568,0.5878908 a 1.5,1.5 0 0 1 1.7229226,-0.1599707 1.5,1.5 0 0 1 0.05048,0.03366 L 10.130662,5.3330237 Z M 6.1779202,9.1559351 A 1.5,1.5 0 0 1 5.8440651,7.9099707 L 4.8258079,7.32208 A 1.5,1.5 0 0 1 4.0182684,7.6700003 4,4 0 0 0 4.7160039,10.273986 1.5,1.5 0 0 1 5.5900293,10.174196 L 6.1779202,9.1559351 Z"/>
</svg>

<svg xmlns="http://www.w3.org/2000/svg" width="16" height="16"><defs><style id="current-color-scheme" type="text/css"></style></defs><path d="M14.062 11.5A7 7 0 0 0 11.5 1.938 7 7 0 0 0 1.938 4.5 7 7 0 0 0 4.5 14.062a7 7 0 0 0 9.562-2.562zm-1.732-1a5 5 0 0 1-5.967 2.222 1.5 1.5 0 0 1-1.796.224 1.5 1.5 0 0 1-.585-1.98 5 5 0 0 1-.948-3.528 1.5 1.5 0 0 1-.48-2.005 1.5 1.5 0 0 1 1.669-.703A5 5 0 0 1 10.5 3.67a5 5 0 0 1 .073.045 1.5 1.5 0 0 1 1.726-.161 1.5 1.5 0 0 1 .55 2.049 1.5 1.5 0 0 1-.291.358 5 5 0 0 1-.228 4.539zm-.866-.5a4 4 0 0 0 .175-3.65 1.5 1.5 0 0 1-.84-.198 1.5 1.5 0 0 1-.05-.034L8.736 7.701a1.5 1.5 0 0 1-.12 1.232 1.5 1.5 0 0 1-1.572.723l-.588 1.018a1.5 1.5 0 0 1 .35 1.138A4 4 0 0 0 11.463 10zm-1.333-4.667a1.5 1.5 0 0 1-.055-.749A4 4 0 0 0 10 4.536a4 4 0 0 0-4.941.758 1.5 1.5 0 0 1 .267 1.162l1.018.588a1.5 1.5 0 0 1 1.723-.16 1.5 1.5 0 0 1 .05.034l2.014-1.585zM6.178 9.156a1.5 1.5 0 0 1-.334-1.246l-1.018-.588a1.5 1.5 0 0 1-.808.348 4 4 0 0 0 .698 2.604 1.5 1.5 0 0 1 .874-.1l.588-1.018z" fill="currentColor" color="#dfdfdf"/></svg>
